input metauml;
beginfig(1);
Class.A("ModuloControl")
        ("+datosCiudad: InterfazCiudadRMI")
        ("+ModuloControl(): void",
	 "+jButtonAbrirSaladeMusculacionActionPerformed(java.awt.event.ActionEvent evt):void",
         "+jButtonActualizarActionPerformed(java.awt.event.ActionEvent evt): void",
         "+jButtonCerrarSaladeMusculacionActionPerformed(java.awt.event.ActionEvent evt): void",
         "+static main(String args[]): void",
	 "+run(): void");
drawObject(A);
endfig;
end